img/logos/medium.svg

<?xml version="1.0" encoding="UTF-8" standalone="no"?>
<svg width="250px" height="49px" viewBox="0 0 250 49" version="1.1" xmlns="http://www.w3.org/2000/svg" xmlns:xlink="http://www.w3.org/1999/xlink">
    <!-- Generator: Sketch 48.1 (47250) - http://www.bohemiancoding.com/sketch -->
    <title>medium</title>
    <desc>Created with Sketch.</desc>
    <defs></defs>
    <g id="Page-1" stroke="none" stroke-width="1" fill="none" fill-rule="evenodd">
        <g id="medium" fill="#7C7C7C" fill-rule="nonzero">
            <path d="M126.268738,43.5033407 C126.268738,44.3651808 126.268738,44.5610535 126.85431,45.08991 L130.13351,48.3022233 L130.13351,48.4393343 L115.591818,48.4393343 L115.591818,42.2693422 C114.128289,46.3358459 110.257559,49.0249493 105.949407,48.9681907 C98.4736102,48.9681907 93.0473144,43.0920079 93.0473144,32.2798313 C93.0473144,22.1532095 98.9030296,15.3955992 107.12055,15.3955992 C110.763133,15.165499 114.152771,17.2708072 115.572298,20.6449892 L115.572298,7.03183222 C115.680328,6.40142865 115.423226,5.764017 114.908651,5.38650098 L111.785602,2.37006043 L111.785602,2.2329495 L126.268738,0.52885646 L126.268738,43.5033407 Z M115.591818,41.544613 L115.591818,21.2326075 C114.537985,19.9190348 112.93884,19.1672675 111.258588,19.1955307 C107.72564,19.1955307 104.309806,22.4078441 104.309806,31.9468476 C104.309806,40.8786456 107.257183,44.0321971 110.926765,44.0321971 C112.787343,43.9939875 114.519049,43.0705762 115.591818,41.544613 Z M135.911149,48.4393343 L135.911149,21.0171475 C136.004198,20.4047744 135.784153,19.7864922 135.325578,19.3718162 L132.104934,16.0419793 L132.104934,15.9048684 L146.646627,15.9048684 L146.646627,43.7188007 C146.646627,44.5806409 146.646627,44.7765136 147.232198,45.30537 L150.433323,48.3218106 L150.433323,48.4589215 L135.911149,48.4393343 Z M135.384135,5.87618289 C135.384135,2.63085669 138.005828,5.96156751e-16 141.23985,0 C144.473872,-5.96156751e-16 147.095565,2.63085669 147.095565,5.87618289 C147.095565,9.12150909 144.473872,11.7523658 141.23985,11.7523658 C138.005828,11.7523658 135.384135,9.12150909 135.384135,5.87618289 Z M185.879919,43.4445788 C185.879919,44.3064189 185.879919,44.5610535 186.46549,45.08991 L189.744691,48.3022233 L189.744691,48.4393343 L175.124922,48.4393343 L175.124922,41.4075021 C173.793624,45.8537187 169.737774,48.9161563 165.111649,48.9681907 C158.631324,48.9681907 155.156933,44.2280698 155.156933,35.2570973 C155.156933,30.9283093 155.156933,26.1881884 155.293566,20.8604492 C155.400652,20.2640633 155.17637,19.656387 154.707995,19.2738799 L151.487352,16.0419793 L151.487352,15.9048684 L165.91193,15.9048684 C165.91193,16.1007411 165.91193,32.9262115 165.91193,33.7880516 C165.91193,39.6642345 166.770768,43.5816898 170.44035,43.5816898 C172.41112,43.4580698 174.187081,42.3460557 175.16396,40.624011 L175.16396,21.0367347 C175.257009,20.4243617 175.036963,19.8060794 174.578389,19.3914035 L171.338226,16.0419793 L171.338226,15.9048684 L185.879919,15.9048684 L185.879919,43.4445788 Z M235.380231,48.4393343 C235.380231,47.3816213 235.575421,33.9055753 235.575421,30.8107856 C235.575421,24.9346027 234.658026,20.8800365 230.539506,20.8800365 C228.467227,20.9441703 226.548043,21.990693 225.366958,23.7006043 C225.780014,25.531849 225.976559,27.4055636 225.95253,29.282978 C225.95253,33.3571315 225.815896,38.5477597 225.757339,43.738388 C225.650254,44.3347739 225.874535,44.9424502 226.34291,45.3249573 L229.622111,48.3413979 L229.622111,48.4785088 L214.943785,48.4785088 C214.943785,47.499145 215.138976,33.9447498 215.138976,30.8499602 C215.138976,24.8758409 214.221581,20.9192111 210.161618,20.9192111 C208.160209,20.9912644 206.334305,22.0847262 205.320893,23.818128 L205.320893,43.7971498 C205.320893,44.6589899 205.320893,44.8548627 205.906465,45.3837191 L209.107589,48.4001597 L209.107589,48.5372706 L194.585416,48.5372706 L194.585416,21.1150838 C194.678465,20.5027108 194.458419,19.8844285 193.999844,19.4697526 L190.7792,16.0419793 L190.7792,15.9048684 L205.320893,15.9048684 L205.320893,22.8779387 C206.669122,18.2740721 210.966172,15.1813331 215.744066,15.3760119 C220.584791,15.3760119 223.863991,18.079056 225.249844,23.2109224 C226.789005,18.4779417 231.219775,15.3020436 236.180512,15.3760119 C242.660837,15.3760119 246.330418,20.1748946 246.330418,29.2438035 C246.330418,33.5725916 246.193785,38.5085852 246.135228,43.6992134 C246.021423,44.3135486 246.282213,44.937013 246.798876,45.2857828 L250,48.3022233 L250,48.4393343 L235.380231,48.4393343 Z M52.7014366,44.1693081 L57.0151468,48.3022233 L57.0151468,48.4393343 L35.134291,48.4393343 L35.134291,48.3022233 L39.5260774,44.1693081 C39.9944532,43.7868009 40.2187345,43.1791246 40.111649,42.5827387 L40.111649,16.159503 C40.111649,15.0430282 40.111649,13.5348079 40.3068395,12.2420477 L25.5504372,48.9681907 L25.3747658,48.9681907 L10.0913492,15.1801391 C9.75952532,14.3378863 9.66193003,14.2791244 9.44722049,13.7110934 L9.44722049,35.8643029 C9.26424607,37.3469877 9.5151826,38.8510636 10.1694254,40.1930909 L16.3179263,48.3022233 L16.3179263,48.4393343 L0,48.4393343 L0,48.3022233 L6.14850093,40.1735037 C6.79791231,38.8369208 7.04870193,37.3405271 6.8707058,35.8643029 L6.8707058,11.3802075 C6.97067854,10.174667 6.60755844,8.9763866 5.85571518,8.03078325 L1.50296689,2.37006043 L1.50296689,2.2329495 L17.1182073,2.2329495 L30.1959713,30.8499602 L41.7122111,2.2329495 L56.9956277,2.2329495 L56.9956277,2.37006043 L52.7014366,7.16894311 C52.186861,7.54645915 51.9297597,8.18387081 52.0377889,8.81427436 L52.0377889,42.5827387 C51.9239845,43.1970739 52.184774,43.8205383 52.7014366,44.1693081 Z M69.8196437,30.9283093 L69.8196437,31.0654202 C69.8196437,39.4487744 74.1333544,42.817786 79.188788,42.817786 C83.4101643,42.9624054 87.3169265,40.5870937 89.1435039,36.7653176 L89.2801372,36.7653176 C87.5234227,45.0507354 82.4094317,48.9681907 74.7579639,48.9681907 C66.5014053,48.9681907 58.7133042,43.9734352 58.7133042,32.397355 C58.7133042,20.2336564 66.5209246,15.3760119 75.1483447,15.3760119 C82.0971269,15.3760119 89.4948466,18.6666743 89.4948466,29.2438035 C89.4948466,29.4396763 89.4948466,30.1448182 89.4948466,30.9283093 L69.8196437,30.9283093 Z M69.8196437,29.2438035 L79.4425361,29.2438035 C79.4425361,28.3819633 79.4425361,27.794345 79.4425361,27.5397104 C79.4425361,18.9213089 77.6663022,16.6295976 74.9921927,16.6295976 C71.7520303,16.6295976 69.7806057,20.0573709 69.7806057,29.2438035 L69.8196437,29.2438035 Z" id="Shape"></path>
        </g>
    </g>
</svg>

<svg width="250" height="49" xmlns="http://www.w3.org/2000/svg"><path d="M126.27 43.503c0 .862 0 1.058.586 1.587l3.279 3.212v.137h-14.542v-6.17a10.112 10.112 0 0 1-9.643 6.699c-7.475 0-12.902-5.876-12.902-16.688 0-10.127 5.856-16.884 14.073-16.884a8.586 8.586 0 0 1 8.452 5.25V7.031a1.687 1.687 0 0 0-.664-1.645l-3.123-3.016v-.138L126.27.53v42.974zm-10.677-1.959V21.232a5.438 5.438 0 0 0-4.333-2.037c-3.533 0-6.949 3.212-6.949 12.751 0 8.932 2.947 12.085 6.617 12.085a5.85 5.85 0 0 0 4.665-2.487zm20.319 6.895V21.017a1.845 1.845 0 0 0-.586-1.645l-3.22-3.33v-.137h14.542v27.814c0 .862 0 1.057.585 1.586l3.201 3.017v.137l-14.522-.02zm-.527-42.563c0-3.245 2.622-5.876 5.856-5.876s5.855 2.63 5.855 5.876-2.621 5.876-5.855 5.876-5.856-2.63-5.856-5.876zm50.496 37.568c0 .862 0 1.116.586 1.645l3.279 3.213v.137h-14.62v-7.032a10.584 10.584 0 0 1-10.013 7.56c-6.48 0-9.955-4.74-9.955-13.71 0-4.33 0-9.07.137-14.397a1.668 1.668 0 0 0-.586-1.587l-3.22-3.232v-.137h14.425v17.883c0 5.876.858 9.794 4.528 9.794a5.853 5.853 0 0 0 4.724-2.958V21.036a1.845 1.845 0 0 0-.586-1.645l-3.24-3.35v-.137h14.542v27.54zm49.5 4.995c0-1.058.195-14.534.195-17.63 0-5.875-.917-9.93-5.036-9.93a6.533 6.533 0 0 0-5.172 2.82c.413 1.832.61 3.706.585 5.583 0 4.074-.136 9.265-.195 14.455a1.668 1.668 0 0 0 .586 1.587l3.279 3.016v.137h-14.678c0-.98.195-14.534.195-17.629 0-5.974-.917-9.93-4.977-9.93a5.853 5.853 0 0 0-4.841 2.898v19.98c0 .861 0 1.057.586 1.586l3.2 3.016v.138h-14.521V21.114a1.845 1.845 0 0 0-.586-1.646l-3.22-3.428v-.137h14.542v6.973c1.348-4.603 5.645-7.696 10.423-7.501 4.84 0 8.12 2.703 9.505 7.834a11.324 11.324 0 0 1 10.931-7.834c6.48 0 10.15 4.798 10.15 13.868 0 4.328-.136 9.264-.195 14.455a1.57 1.57 0 0 0 .664 1.586l3.2 3.017v.137h-14.62zm-182.68-4.27 4.314 4.133v.137H35.134v-.137l4.391-4.133c.469-.383.693-.99.586-1.587V16.16c0-1.116 0-2.625.195-3.917L25.55 48.968h-.175L10.092 15.18c-.332-.843-.43-.901-.645-1.47v22.154a7.722 7.722 0 0 0 .723 4.328l6.148 8.11v.137H0v-.137l6.149-8.13c.65-1.336.9-2.832.722-4.308V11.38a4.751 4.751 0 0 0-1.015-3.35L1.503 2.37v-.138h15.615L30.196 30.85 41.712 2.232h15.283v.138l-4.294 4.798a1.687 1.687 0 0 0-.664 1.646v33.768a1.57 1.57 0 0 0 .664 1.586zm17.118-13.241v.137c0 8.383 4.314 11.752 9.37 11.752a10.633 10.633 0 0 0 9.954-6.053h.136c-1.756 8.286-6.87 12.203-14.522 12.203-8.256 0-16.045-4.994-16.045-16.57 0-12.165 7.808-17.022 16.435-17.022 6.95 0 14.347 3.291 14.347 13.868v1.685H69.82zm0-1.685h9.623V27.54c0-8.618-1.776-10.91-4.45-10.91-3.24 0-5.212 3.428-5.212 12.614h.039z" fill="#7C7C7C" fill-rule="nonzero"/></svg>
